X: 90
T: No_186_Song_Referring_to_an_Historical_Incident.krn
N: Derived from No_186_Song_Referring_to_an_Historical_Incident.krn
%%abc-version 2.0
%%abcx-abcm2ps-target-version 5.9.1 (29 Sep 2008)
%%abc-creator hum2abc beta
%%abcx-conversion-date 2019/03/15 08:29:13
%%humdrum-veritas 2152635985
%%humdrum-veritas-data 2013968661
%%linebreak <none>
%%barnumbers 0
L: 1/8
M: 3/4
%%staves {1 2}
V: 1 clef=treble
V: 2 clef=bass
K: Gb
[V:1] B/ [I:setbarnb 1]| 
[V:2] G,,/ | 
[V:1] B/A3/ G3/B/ (B/G3/) | 
[V:2] (3:2:9!accent!G,, z G,, !accent!G,, z G,, !accent!G,, z G,, | 
[V:1] G4G3/E/ ||  
[V:2] z6 ||  
[V:1] [M:4/4]G2G2G2G3/B/ ||  
[V:2] [M:4/4]z8 ||  
[V:1] [M:3/4](3:2:9(B/A)A (AG)G GEE | 
[V:2] [M:3/4]z6 | 
[V:1] D4D3/B,/ ||  
[V:2] z6 ||  
[V:1] [M:4/4]D2D2D2D3/G/ ||  
[V:2] [M:4/4]z8 ||  
[V:1] [M:3/4]G2D3/E/ D3/D/ | 
[V:2] [M:3/4]z6 | 
[V:1] B,4B,3/A,/ | 
[V:2] z6 | 
[V:1] (G,4z2 | 
[V:2] z4G,3/E,/ | 
[V:1] z6 ||  
[V:2] G,4-G,3/B,/ ||  
[V:1] [M:4/4]z8 ||  
[V:2] [M:4/4]B,3/A,/G,3/B,/ G,3/E,/G,3/E,/ ||  
[V:1] [M:3/4]z6 | 
[V:2] [M:3/4]D,3/D,/D,4 | 
[V:1] z6 |]  
[V:2] D,4D,2 |]  



